Dominus_Dark_Funeral/scalable/apps/trashindicator.svg

<svg xmlns="http://www.w3.org/2000/svg" xmlns:xlink="http://www.w3.org/1999/xlink" width="48" height="48" version="1"><defs><linearGradient id="c"><stop offset="0" stop-color="#2086e7"/><stop offset="1" stop-color="#fff"/></linearGradient><linearGradient id="a"><stop offset="0" stop-color="#040000"/><stop offset="1" stop-opacity="0"/></linearGradient><linearGradient id="b"><stop offset="0" stop-color="#333"/><stop offset="1" stop-color="gray"/></linearGradient><linearGradient xlink:href="#d" id="j" x1="44.804" y1="32.767" x2="5.875" y2="20.842" gradientUnits="userSpaceOnUse" gradientTransform="translate(1.001 1.001) scale(.95828)"/><linearGradient id="d"><stop offset="0" stop-color="#2c5aa0"/><stop offset=".2" stop-color="#3771c8"/><stop offset=".33" stop-color="#2c5aa0"/><stop offset=".44" stop-color="#3771c8"/><stop offset=".57" stop-color="#3771c8"/><stop offset=".76" stop-color="#5f8dd3"/><stop offset="1" stop-color="#3771c8"/></linearGradient><linearGradient id="e"><stop offset="0" stop-color="#28170b"/><stop offset="1" stop-color="#28170b" stop-opacity=".07"/></linearGradient><linearGradient xlink:href="#f" id="k" x1="24.36" y1="32.04" x2="46.28" y2="32.04" gradientUnits="userSpaceOnUse" gradientTransform="matrix(.71849 0 0 .71849 6.792 .994)"/><linearGradient id="f"><stop offset="0" stop-color="#1a1a1a"/><stop offset="1" stop-color="#1a1a1a" stop-opacity=".51"/></linearGradient><linearGradient id="g"><stop offset="0" stop-color="#28170b"/><stop offset="1" stop-color="#28170b" stop-opacity="0"/></linearGradient><linearGradient id="h"><stop offset="0" stop-color="#28170b" stop-opacity="0"/><stop offset="1" stop-color="#28170b"/></linearGradient><linearGradient id="i"><stop offset="0" stop-color="#372819"/><stop offset=".2" stop-color="#664b33"/><stop offset=".33" stop-color="#453322"/><stop offset=".55" stop-color="#664b33"/><stop offset=".65" stop-color="#5e452f"/><stop offset=".76" stop-color="#845e3f"/><stop offset="1" stop-color="#443221"/></linearGradient></defs><path d="M40.185 17.695L32.682 46.97H15.318L7.815 17.695 13.468 1.03h21.073z" fill="url(#j)"/><path d="M18.519 42.993l-3.201 3.977h17.364l-3.2-3.977z" fill="#162d50" fill-opacity=".1"/><path d="M29.481 42.993l3.201 3.977 7.503-29.275-4.254.153z" fill="#162d50" fill-opacity=".47"/><path d="M13.468 1.03l2.952 3.977h15.14l2.972-3.977z" fill="#162d50" fill-opacity=".35"/><path d="M40.185 17.695L34.532 1.03 31.57 5.007l4.36 12.84z" fill="#162d50" fill-opacity=".71"/><path d="M18.519 42.993l-3.201 3.977-7.503-29.275 4.254.153z" fill="#162d50" fill-opacity=".47"/><path d="M7.815 17.695L13.468 1.03l2.962 3.977-4.36 12.84z" fill="#162d50" fill-opacity=".71"/><path d="M18.525 42.997l-3.204 3.973h17.373l-3.198-3.973z" fill="none"/><path d="M27.607 21.902h-2.745v2.6a.862.862 0 1 1-1.71 0v-2.6h-2.759a.862.862 0 1 1 0-1.717h2.76v-8.04a.862.862 0 1 1 1.71 0v8.047h2.751a.862.862 0 1 1 0 1.717z" fill="#e3dbdb"/><path d="M34.547 1.03h-10.26v45.926l8.392.014 7.501-29.278z" opacity=".3" fill="url(#k)"/></svg>

<?xml version="1.0" encoding="UTF-8" standalone="no"?>
<svg
   xmlns:dc="http://purl.org/dc/elements/1.1/"
   xmlns:cc="http://creativecommons.org/ns#"
   xmlns:rdf="http://www.w3.org/1999/02/22-rdf-syntax-ns#"
   xmlns:svg="http://www.w3.org/2000/svg"
   xmlns="http://www.w3.org/2000/svg"
   xmlns:xlink="http://www.w3.org/1999/xlink"
   xmlns:sodipodi="http://sodipodi.sourceforge.net/DTD/sodipodi-0.dtd"
   xmlns:inkscape="http://www.inkscape.org/namespaces/inkscape"
   width="48"
   height="48"
   version="1"
   id="svg91"
   sodipodi:docname="trashindicator.svg"
   inkscape:version="0.92.4 (5da689c313, 2019-01-14)">
  <metadata
     id="metadata95">
    <rdf:RDF>
      <cc:Work
         rdf:about="">
        <dc:format>image/svg+xml</dc:format>
        <dc:type
           rdf:resource="http://purl.org/dc/dcmitype/StillImage" />
        <dc:title></dc:title>
      </cc:Work>
    </rdf:RDF>
  </metadata>
  <sodipodi:namedview
     pagecolor="#ffffff"
     bordercolor="#666666"
     borderopacity="1"
     objecttolerance="10"
     gridtolerance="10"
     guidetolerance="10"
     inkscape:pageopacity="0"
     inkscape:pageshadow="2"
     inkscape:window-width="1112"
     inkscape:window-height="480"
     id="namedview93"
     showgrid="false"
     inkscape:zoom="4.9166667"
     inkscape:cx="2.1355932"
     inkscape:cy="24"
     inkscape:window-x="0"
     inkscape:window-y="25"
     inkscape:window-maximized="0"
     inkscape:current-layer="svg91" />
  <defs
     id="defs69">
    <linearGradient
       id="c">
      <stop
         offset="0"
         stop-color="#2086e7"
         id="stop2" />
      <stop
         offset="1"
         stop-color="#fff"
         id="stop4" />
    </linearGradient>
    <linearGradient
       id="a">
      <stop
         offset="0"
         stop-color="#040000"
         id="stop7" />
      <stop
         offset="1"
         stop-opacity="0"
         id="stop9" />
    </linearGradient>
    <linearGradient
       id="b">
      <stop
         offset="0"
         stop-color="#333"
         id="stop12" />
      <stop
         offset="1"
         stop-color="gray"
         id="stop14" />
    </linearGradient>
    <linearGradient
       xlink:href="#d"
       id="j"
       x1="44.804"
       y1="32.767"
       x2="5.875"
       y2="20.842"
       gradientUnits="userSpaceOnUse"
       gradientTransform="matrix(0.95828,0,0,0.95828,1.001,1.001)" />
    <linearGradient
       id="d">
      <stop
         offset="0"
         stop-color="#2c5aa0"
         id="stop18" />
      <stop
         offset=".2"
         stop-color="#3771c8"
         id="stop20" />
      <stop
         offset=".33"
         stop-color="#2c5aa0"
         id="stop22" />
      <stop
         offset=".44"
         stop-color="#3771c8"
         id="stop24" />
      <stop
         offset=".57"
         stop-color="#3771c8"
         id="stop26" />
      <stop
         offset=".76"
         stop-color="#5f8dd3"
         id="stop28" />
      <stop
         offset="1"
         stop-color="#3771c8"
         id="stop30" />
    </linearGradient>
    <linearGradient
       id="e">
      <stop
         offset="0"
         stop-color="#28170b"
         id="stop33" />
      <stop
         offset="1"
         stop-color="#28170b"
         stop-opacity=".07"
         id="stop35" />
    </linearGradient>
    <linearGradient
       xlink:href="#f"
       id="k"
       x1="24.36"
       y1="32.04"
       x2="46.28"
       y2="32.04"
       gradientUnits="userSpaceOnUse"
       gradientTransform="matrix(0.71849,0,0,0.71849,6.792,0.994)" />
    <linearGradient
       id="f">
      <stop
         offset="0"
         stop-color="#1a1a1a"
         id="stop39" />
      <stop
         offset="1"
         stop-color="#1a1a1a"
         stop-opacity=".51"
         id="stop41" />
    </linearGradient>
    <linearGradient
       id="g">
      <stop
         offset="0"
         stop-color="#28170b"
         id="stop44" />
      <stop
         offset="1"
         stop-color="#28170b"
         stop-opacity="0"
         id="stop46" />
    </linearGradient>
    <linearGradient
       id="h">
      <stop
         offset="0"
         stop-color="#28170b"
         stop-opacity="0"
         id="stop49" />
      <stop
         offset="1"
         stop-color="#28170b"
         id="stop51" />
    </linearGradient>
    <linearGradient
       id="i">
      <stop
         offset="0"
         stop-color="#372819"
         id="stop54" />
      <stop
         offset=".2"
         stop-color="#664b33"
         id="stop56" />
      <stop
         offset=".33"
         stop-color="#453322"
         id="stop58" />
      <stop
         offset=".55"
         stop-color="#664b33"
         id="stop60" />
      <stop
         offset=".65"
         stop-color="#5e452f"
         id="stop62" />
      <stop
         offset=".76"
         stop-color="#845e3f"
         id="stop64" />
      <stop
         offset="1"
         stop-color="#443221"
         id="stop66" />
    </linearGradient>
  </defs>
  <path
     d="M 40.185,17.695 32.682,46.97 H 15.318 L 7.815,17.695 13.468,1.03 h 21.073 z"
     id="path71"
     style="fill:url(#j)"
     inkscape:connector-curvature="0" />
  <path
     d="m 18.519,42.993 -3.201,3.977 h 17.364 l -3.2,-3.977 z"
     id="path73"
     inkscape:connector-curvature="0"
     style="fill:#162d50;fill-opacity:0.1" />
  <path
     d="m 29.481,42.993 3.201,3.977 7.503,-29.275 -4.254,0.153 z"
     id="path75"
     inkscape:connector-curvature="0"
     style="fill:#162d50;fill-opacity:0.47000002" />
  <path
     d="M 13.468,1.03 16.42,5.007 H 31.56 L 34.532,1.03 Z"
     id="path77"
     inkscape:connector-curvature="0"
     style="fill:#162d50;fill-opacity:0.35" />
  <path
     d="M 40.185,17.695 34.532,1.03 31.57,5.007 l 4.36,12.84 z"
     id="path79"
     inkscape:connector-curvature="0"
     style="fill:#162d50;fill-opacity:0.70999995" />
  <path
     d="M 18.519,42.993 15.318,46.97 7.815,17.695 12.069,17.848 Z"
     id="path81"
     inkscape:connector-curvature="0"
     style="fill:#162d50;fill-opacity:0.47000002" />
  <path
     d="M 7.815,17.695 13.468,1.03 16.43,5.007 12.07,17.847 Z"
     id="path83"
     inkscape:connector-curvature="0"
     style="fill:#162d50;fill-opacity:0.70999995" />
  <path
     d="M 18.525,42.997 15.321,46.97 H 32.694 L 29.496,42.997 Z"
     id="path85"
     inkscape:connector-curvature="0"
     style="fill:none" />
  <path
     d="m 27.607,21.902 h -2.745 v 2.6 a 0.862,0.862 0 1 1 -1.71,0 v -2.6 h -2.759 a 0.862,0.862 0 1 1 0,-1.717 h 2.76 v -8.04 a 0.862,0.862 0 1 1 1.71,0 v 8.047 h 2.751 a 0.862,0.862 0 1 1 0,1.717 z"
     id="path87"
     inkscape:connector-curvature="0"
     style="fill:#e3dbdb" />
  <path
     d="M 34.547,1.03 H 24.287 V 46.956 L 32.679,46.97 40.18,17.692 Z"
     id="path89"
     style="opacity:0.3;fill:url(#k)"
     inkscape:connector-curvature="0" />
</svg>
